img/assets/sectionServices/rings.svg

<?xml version="1.0" encoding="UTF-8"?>
<svg width="80px" height="80px" viewBox="0 0 80 80" version="1.1" xmlns="http://www.w3.org/2000/svg" xmlns:xlink="http://www.w3.org/1999/xlink">
    <!-- Generator: Sketch 61 (89581) - https://sketch.com -->
    <title>rings</title>
    <desc>Created with Sketch.</desc>
    <g id="Inner-Pages" stroke="none" stroke-width="1" fill="none" fill-rule="evenodd">
        <g id="036--Services-2" transform="translate(-530.000000, -722.000000)" fill="#888888" fill-rule="nonzero">
            <g id="section-SERVICES" transform="translate(400.000000, 618.000000)">
                <g id="service-1">
                    <g id="content" transform="translate(80.000000, 104.000000)">
                        <g id="rings" transform="translate(50.000000, 0.000000)">
                            <path d="M79.1651563,46.4732812 C77.6442188,40.23 73.9454688,34.7171875 68.7504688,30.9504687 C63.8053125,27.365 57.7839063,25.5495312 51.7254688,25.800625 C48.9328125,19.8073437 44.0704688,15.0717187 37.951875,12.4132812 C37.35125,12.1526562 36.6532813,12.4278125 36.3921875,13.028125 C36.1314063,13.6285937 36.4065625,14.326875 37.0070313,14.5878125 C42.8270313,17.1164062 47.4021875,21.7017187 49.89,27.4989062 C50.4345313,28.7678125 50.8759375,30.0896875 51.201875,31.4279687 C51.2884375,31.7832812 51.3682813,32.14875 51.4459375,32.5454687 C51.4459375,32.5457812 51.4460938,32.5460937 51.4460938,32.54625 C52.6329688,38.6040625 51.51625,44.8509375 48.3015625,50.1364062 C45.2625,55.1329687 40.598125,58.86 35.0917188,60.7159375 C34.9923438,60.49 34.8973438,60.261875 34.8065625,60.031875 C34.8054688,60.0292187 34.8045313,60.0267187 34.8035938,60.0240625 C34.6290625,59.5815625 34.4715625,59.1315625 34.329375,58.6760937 C34.3179688,58.6395312 34.3065625,58.6029687 34.2954688,58.56625 C34.2296875,58.3510937 34.1670313,58.1346875 34.1085938,57.9170312 C34.1071875,57.9115625 34.1057813,57.9060937 34.104375,57.900625 C44.4609375,54.4246875 50.7242187,43.6410937 48.4617188,32.8359375 C48.4617188,32.8357812 48.4617188,32.835625 48.4617188,32.8354687 C48.4059375,32.5689062 48.3557812,32.3457813 48.3040625,32.1334375 C47.910625,30.5189063 47.3354688,28.9539063 46.594375,27.481875 C46.5928125,27.47875 46.5910938,27.4759375 46.5895313,27.4728125 C46.5845313,27.4629688 46.579375,27.4534375 46.5740625,27.44375 C44.3979687,23.1434375 40.78625,19.6423437 36.3985938,17.583125 C34.2951563,16.5959375 32.0501563,15.9607812 29.761875,15.686875 L38.1826563,7.8596875 C38.6095313,7.4628125 38.6846875,6.81453125 38.3598437,6.330625 L38.3542188,6.32234375 C38.3540625,6.3221875 38.3540625,6.32203125 38.3539063,6.321875 L34.4610938,0.52453125 C34.2409375,0.19671875 33.871875,0 33.4770313,0 L20.8598438,0 C20.4648438,0 20.0959375,0.19671875 19.875625,0.52453125 L15.9767188,6.3309375 C15.651875,6.81484375 15.726875,7.463125 16.1539063,7.86 L24.5739063,15.6865625 C23.7165625,15.7889063 22.8632812,15.9415625 22.019375,16.1470313 C10.3651563,18.98625 3.19359375,30.7776562 6.0325,42.431875 C7.20296875,47.2365625 10.0046875,51.53625 13.9215625,54.5392188 C17.5201563,57.298125 21.9257813,58.874375 26.4251563,59.0285937 C26.4467188,59.1215625 26.4685938,59.21375 26.4907813,59.3054688 C26.5435938,59.5223437 26.5995313,59.7376563 26.6573438,59.9520312 C26.6707813,60.0017187 26.6851563,60.0514062 26.69875,60.1010937 C26.7459375,60.2725 26.7945312,60.443125 26.8448437,60.6128125 C26.85875,60.6595312 26.8729687,60.70625 26.8871875,60.7529687 C26.9421875,60.9346875 26.9989062,61.1154687 27.0573437,61.2951562 C27.0673437,61.3260937 27.0773437,61.3570312 27.0875,61.3879687 C27.1576563,61.6007812 27.2296875,61.8123437 27.3046875,62.0223437 C22.0907812,62.04875 16.954375,60.4154688 12.6845312,57.3353125 C7.9190625,53.8975 4.52734375,48.8553125 3.13453125,43.1376562 C1.74421875,37.430625 2.4315625,31.4029687 5.0703125,26.165 C7.67984375,20.9848437 12.0317187,16.8721875 17.3245312,14.5846875 C17.9254688,14.3248437 18.2020312,13.6271875 17.9423437,13.02625 C17.6825,12.4254687 16.9846875,12.1484375 16.3839062,12.4084375 C10.5821875,14.9160937 5.81234375,19.4228125 2.953125,25.0984375 C0.0614966041,30.8392188 -0.6921875,37.445 0.83125,43.6989063 C2.35765625,49.9645313 6.07484375,55.4901562 11.2976563,59.2579687 C15.933125,62.6020312 21.5017188,64.39375 27.1623438,64.3935937 C27.5307813,64.3935937 27.8996875,64.38375 28.26875,64.3685937 C32.7185938,73.8965625 42.3725,80 52.8285938,80 C54.94625,80 57.0973438,79.7495313 59.2440625,79.2265625 C73.7664063,75.68875 82.7029687,60.9957813 79.1651563,46.4732812 Z M50.3271875,51.3684375 C53.59375,45.9978125 54.881875,39.7204687 54.015,33.5420312 C57.8725,33.7810937 61.6317188,35.1890625 64.71125,37.5753125 C68.2079688,40.2848437 70.6107813,43.9939062 71.6603125,48.3017187 C74.19,58.6859375 67.8,69.1920312 57.4157813,71.7217187 C52.385625,72.9473437 47.1792188,72.1404687 42.755625,69.45 C40.0176563,67.7846875 37.7832813,65.5207812 36.186875,62.8446875 C42.075,60.7735937 47.059375,56.7415625 50.3271875,51.3684375 Z M33.6284375,55.5565625 C33.0228125,51.2425 33.8815625,46.874375 36.114375,43.0734375 C38.450625,39.0964063 42.05875,36.130625 46.365625,34.6148438 C47.6354688,43.6990625 42.2790625,52.5057812 33.6284375,55.5565625 Z M21.4915625,2.37078125 L32.845,2.37078125 L35.1460938,5.79765625 L19.190625,5.79765625 L21.4915625,2.37078125 Z M19.9678125,8.1684375 L34.36875,8.1684375 L27.1682813,14.8614062 L19.9678125,8.1684375 Z M25.9792188,56.6317187 C22.156875,56.3965625 18.4307813,55.0090625 15.3642188,52.6578125 C11.824375,49.9439062 9.39421875,46.21375 8.33625,41.870625 C5.8065625,31.4865625 12.1965625,20.9803125 22.5807813,18.4504687 C26.9239063,17.3923437 31.3539063,17.8348437 35.3917188,19.7296875 C38.8901563,21.3714062 41.8321875,24.0420312 43.8017188,27.3284375 C37.7189063,29.4675 32.6309375,33.6764062 29.3704688,39.3046875 C26.3090625,44.589375 25.138125,50.6521875 25.9792188,56.6317187 Z M58.6829688,76.923125 C56.723125,77.400625 54.761875,77.6289063 52.82875,77.6289063 C42.985625,77.628125 33.9204688,71.6995313 30.0459375,62.5284375 C30.0035938,62.4279688 29.96125,62.3276563 29.9201563,62.2267188 C29.9035938,62.1859375 29.8876563,62.1448438 29.87125,62.1040625 C29.8207813,61.978125 29.7707813,61.851875 29.7225,61.725 C29.7153125,61.7060938 29.7084375,61.6870313 29.70125,61.6679688 C29.6459375,61.521875 29.5915625,61.3753125 29.5390625,61.228125 C29.5373438,61.2234375 29.5357813,61.2185938 29.5340625,61.2139063 C29.4773438,61.055 29.4221875,60.8954688 29.36875,60.7353125 C29.3684375,60.734375 29.368125,60.7335938 29.3678125,60.7326563 C29.3135938,60.5703125 29.2610938,60.4075 29.2103125,60.2442188 C29.2067188,60.2326563 29.2034375,60.2209375 29.1998438,60.209375 C29.1528125,60.0571875 29.106875,59.9048438 29.0628125,59.7520313 C29.0484375,59.7020313 29.035,59.6515625 29.0207813,59.60125 C28.988125,59.485625 28.9554688,59.37 28.9245313,59.2539063 C28.8795313,59.0848438 28.8360938,58.915 28.7945313,58.7442188 C28.7523438,58.57125 28.7128125,58.3979688 28.6745313,58.2245312 C28.6596875,58.1570313 28.6451563,58.0879688 28.630625,58.0190625 C28.6139063,57.9401563 28.5978125,57.86125 28.581875,57.7823438 C28.5714063,57.7304688 28.5609375,57.679375 28.5504688,57.6264063 C28.5490625,57.6192188 28.546875,57.6125 28.5454688,57.6054688 C27.4001563,51.7328125 28.40625,45.6990625 31.4220313,40.4929688 C34.4532813,35.2601563 39.215,31.3721875 44.90375,29.4564063 C45.3029687,30.364375 45.6334375,31.3064063 45.89125,32.2704688 C40.9179688,33.9365625 36.7492187,37.3123438 34.070625,41.8721875 C31.3134375,46.5654688 30.42375,52.029375 31.535,57.335 C31.535,57.3353125 31.5351563,57.3357813 31.5351563,57.3360938 C31.535625,57.33875 31.53625,57.3409375 31.5367188,57.3435938 C31.5564063,57.4375 31.5764063,57.53125 31.5973438,57.625 C31.6295313,57.7710938 31.6609375,57.9073438 31.6928125,58.0382813 C31.7396875,58.230625 31.7895313,58.4217188 31.84125,58.6120313 C31.8539062,58.6585938 31.8676563,58.705 31.880625,58.7515625 C31.921875,58.899375 31.9642188,59.0467188 32.0082813,59.193125 C32.0215625,59.2373438 32.0354688,59.28125 32.0492188,59.3253125 C32.096875,59.4798438 32.1460938,59.63375 32.196875,59.786875 C32.2071875,59.8176563 32.2175,59.8482812 32.2278125,59.8789063 C32.2873438,60.055625 32.3492187,60.23125 32.413125,60.4057813 C32.4154688,60.4120313 32.4176563,60.4182813 32.42,60.4245313 C34.108125,65.0239063 37.27625,68.8915625 41.5242188,71.4753125 C44.9751563,73.5742188 48.8501563,74.6517188 52.78875,74.6515625 C54.5160938,74.6515625 56.25625,74.4442188 57.9775,74.0248438 C69.6317188,71.1857812 76.8032813,59.394375 73.9642188,47.7401562 C72.7864063,42.905625 70.0890625,38.7425 66.16375,35.7009375 C62.5523438,32.9026562 58.1071875,31.2995312 53.5715625,31.1440625 C53.55,31.0507812 53.528125,30.9582812 53.505625,30.8664062 C53.2825,29.9501562 53.0098438,29.0407812 52.6910938,28.148002 C57.924375,28.1171875 63.0814063,29.7682812 67.3589063,32.8696875 C72.0990625,36.3064062 75.47375,41.336875 76.861875,47.0342187 C80.09,60.2867188 71.9351563,73.6946875 58.6829688,76.923125 Z" id="Shape"></path>
                        </g>
                    </g>
                </g>
            </g>
        </g>
    </g>
</svg>

<svg xmlns="http://www.w3.org/2000/svg" width="80" height="80" viewBox="0 0 80 80"><title>rings</title><path fill="#888" fill-rule="nonzero" d="M79.165 46.473A27.118 27.118 0 0 0 68.75 30.95a27.149 27.149 0 0 0-17.025-5.15c-2.792-5.993-7.655-10.728-13.773-13.387a1.186 1.186 0 0 0-.945 2.175c5.82 2.528 10.395 7.114 12.883 12.91a24.985 24.985 0 0 1 1.556 5.047v.001a24.655 24.655 0 0 1-3.144 17.59 24.655 24.655 0 0 1-13.21 10.58 19.284 19.284 0 0 1-.763-2.04l-.034-.11a19.635 19.635 0 0 1-.186-.649l-.005-.016c10.357-3.476 16.62-14.26 14.358-25.065a21.732 21.732 0 0 0-1.868-5.354l-.004-.01-.016-.028a21.847 21.847 0 0 0-10.175-9.86 21.697 21.697 0 0 0-6.637-1.897l8.42-7.827a1.186 1.186 0 0 0 .178-1.53l-.006-.008L34.46.525A1.186 1.186 0 0 0 33.477 0H20.86c-.395 0-.764.197-.984.525l-3.9 5.806a1.185 1.185 0 0 0 .178 1.529l8.42 7.827a21.64 21.64 0 0 0-2.555.46c-11.654 2.84-18.825 14.63-15.986 26.285a21.808 21.808 0 0 0 7.889 12.107 21.864 21.864 0 0 0 12.503 4.49 30.107 30.107 0 0 0 .232.923l.042.15a27.152 27.152 0 0 0 .606 1.92 24.811 24.811 0 0 1-14.62-4.687 24.736 24.736 0 0 1-7.615-31.17 24.757 24.757 0 0 1 12.255-11.58 1.186 1.186 0 0 0-.941-2.177A27.117 27.117 0 0 0 .83 43.698a27.11 27.11 0 0 0 10.467 15.56 27.158 27.158 0 0 0 15.864 5.136c.369 0 .738-.01 1.107-.025C32.719 73.897 42.373 80 52.829 80c2.117 0 4.268-.25 6.415-.773 14.522-3.538 23.459-18.231 19.921-32.754zm-28.838 4.895a27.019 27.019 0 0 0 3.688-17.826 19.503 19.503 0 0 1 10.696 4.033c3.497 2.71 5.9 6.419 6.95 10.727 2.529 10.384-3.861 20.89-14.245 23.42a19.255 19.255 0 0 1-14.66-2.272 19.288 19.288 0 0 1-6.57-6.605 27.017 27.017 0 0 0 14.141-11.477zm-16.699 4.189a19.266 19.266 0 0 1 2.486-12.484 19.267 19.267 0 0 1 10.252-8.458c1.27 9.084-4.087 17.89-12.738 20.942zM21.492 2.37h11.353l2.301 3.427H19.191l2.3-3.427zm-1.524 5.797h14.4l-7.2 6.693-7.2-6.693zm6.011 48.464a19.481 19.481 0 0 1-10.615-3.974c-3.54-2.714-5.97-6.444-7.028-10.787-2.53-10.384 3.86-20.89 14.245-23.42 4.343-1.059 8.773-.616 12.81 1.279a19.493 19.493 0 0 1 8.41 7.598c-6.082 2.14-11.17 6.348-14.43 11.977a26.96 26.96 0 0 0-3.392 17.327zm32.704 20.291a24.7 24.7 0 0 1-5.854.706c-9.843 0-18.909-5.93-22.783-15.1-.042-.101-.085-.201-.126-.302l-.049-.123c-.05-.126-.1-.252-.148-.379l-.022-.057a24.28 24.28 0 0 1-.162-.44l-.005-.014a24.352 24.352 0 0 1-.165-.479l-.001-.002a24.667 24.667 0 0 1-.158-.489l-.01-.035a25.132 25.132 0 0 1-.137-.457l-.042-.15a24.307 24.307 0 0 1-.226-.858 24.243 24.243 0 0 1-.12-.52l-.044-.205a25.447 25.447 0 0 1-.05-.237l-.03-.156-.006-.02a24.608 24.608 0 0 1 2.877-17.113 24.605 24.605 0 0 1 13.482-11.037c.399.908.73 1.85.987 2.814a21.626 21.626 0 0 0-11.82 9.602 21.631 21.631 0 0 0-2.536 15.463v.001l.002.008a22.012 22.012 0 0 0 .304 1.268l.04.14c.04.147.083.295.127.441l.041.132c.048.155.097.309.148.462l.03.092c.06.177.122.352.186.527l.007.019c1.688 4.599 4.856 8.467 9.104 11.05a21.614 21.614 0 0 0 16.453 2.55c11.655-2.84 18.826-14.63 15.987-26.285-1.178-4.834-3.875-8.998-7.8-12.04a21.877 21.877 0 0 0-12.592-4.556 27.316 27.316 0 0 0-.88-2.996 24.745 24.745 0 0 1 24.17 18.886c3.228 13.253-4.927 26.66-18.179 29.89z"/></svg>
